X:186
T:Stringers Hornpipe
O:No 186 Page 91 Wm Clarke of Feltwell
M:C
L:1/8
K:D
:A2| FDFA d2 cd| efge dcBA| BGGB AFFA| GEEA GFED|\
 FDFA d2 cd| efge dcBA|f2 fgaf df| gedc d2 z||\
fddf ecce| dBBd- dc.B.A| BGGB AFFA | GEEG GFED|\
FDFA d2 cd| efge dcBA| f2 fg afdf| gedc d2 z |]

